X: 2
T: Irene Meldrum's Welcome To Bon Accord
Z: Weejie
S: https://thesession.org/tunes/13364#setting23496
R: strathspey
M: 4/4
L: 1/8
K: Dmaj
a>g|f>ed<f A>AA>d|B<Ad>A B2 A>B|d2 f>d a>fe<d|f2 e2 e2 a>g|
f>ed<f A>AA>d|B<Ad>A B2 A>B|d2 c<d e>fa>e|f2 d2 d<d:|
f>g|a>gf<a f>ed>e|f<ae<A B2 A>B|d2 f>d a>fe<d|f2 e2 e2 f>g|
a>gf<a f>ed>e|f<ae<A B2 A>B|d2 c<d e>fa>e|f2 d2 d<df>g|
a>gf<a f>ed>e|f<ae<A B2 A>B|d2 f>d a>fe<d|f2 e2 e2 a>g|
f>ae<f e>de>f|a<ef>d B2 A>B|d2 c>d e>fa>e|f2 d2 d<d|
|:f2|A>AA>B A<Bd>A|B<ed>A B2 A>B|d2 f>d a>fe<d|f2 e2 e2 f2|
A>AA>B A<Bd>A|B<ed>A B2 A>B|d2 c>d e>fa>e|f2 d2 d<d:|
